X:52 
T: Frieze Breeches, The  
B:RC1.100
F:file ID roche.1/052fbj
Z:bill@capeirish.com
N:An intereting setting of this well-known tune.
Q:160
L:1/8
M:6/8
R:jig
K:G
d/c/|B2G GBc|d2g fdc|ded cdc|BAB cAG|
B2G GBc|d2g fdc|BAB cAd|BGG G2:|
e/f/|g2a bag|a2g fdc|ded cdc|BAB cAG|
g2a bag|a2g fdc|BAB cAd|BGG G2:|

